src/icons/service-spotinst.svg

<svg enable-background="new 0 0 14 14" viewBox="0 0 14 14" xmlns="http://www.w3.org/2000/svg" xmlns:xlink="http://www.w3.org/1999/xlink"><linearGradient id="a"><stop offset="0" stop-color="#1a8aff"/><stop offset=".24" stop-color="#1d8fff"/><stop offset=".52" stop-color="#249eff"/><stop offset=".83" stop-color="#30b6ff"/><stop offset="1" stop-color="#39c7ff"/></linearGradient><linearGradient id="b" gradientTransform="matrix(12.439 0 0 -8.6741 3409.6636 3117.0237)" gradientUnits="userSpaceOnUse" x1="-273.3702" x2="-273.7775" xlink:href="#a" y1="358.1274" y2="359.1392"/><linearGradient id="c" gradientTransform="matrix(10.64 0 0 -7.4085 2874.8667 2610.5256)" gradientUnits="userSpaceOnUse" x1="-269.312" x2="-269.7213" xlink:href="#a" y1="350.6083" y2="351.6264"/><g><path d="m6.6.1-4.7 2.2c-.3.2-.5.5-.6.8l-1.1 5c-.1.3 0 .7.2 1l3.2 4c.2.3.5.4.9.4h5.1c.4 0 .7-.2.9-.4l3.2-4c.2-.3.3-.6.2-1l-1.1-5c-.1-.3-.3-.6-.6-.8l-4.6-2.2c-.4-.1-.7-.1-1 0z" fill="#fff"/><path d="m2.2 8.4s.1-.1.1-.2c0-1.1.4-2.1 1.2-2.8.7-.6 1.6-.9 2.5-.8 1 .1 1.8.5 2.4 1.2.1.1.1.1.2.1 1.2-.4 2.4.1 3 1.2 0 .1.1.1.1.1.6.1 1.2.5 1.5 1.1 0-.1 0-.2 0-.2l-1-4.5c-.1-.3-.3-.6-.6-.7l-4.2-2c-.3-.1-.6-.1-.9 0l-4.2 2c-.1 0-.3.3-.4.6l-1 4.5c-.1.3 0 .6.2.9l.4.5c.1-.4.3-.7.7-1z" fill="url(#b)"/><path d="m12.7 9.1c-.2-.7-.9-1.1-1.6-1-.2-.8-1-1.4-1.8-1.3-.3-.1-.6 0-.8.1-.1.1-.2.1-.3.1 0 0-.1-.1-.1-.2-.6-1-1.7-1.5-2.8-1.3-1.4.3-2.3 1.5-2.2 2.9v.2c0 .1 0 .3-.2.3-.5.2-.8.7-.8 1.3v.1l1.8 2.2c.2.2.5.4.8.4h4.6c.3 0 .6-.1.8-.4l2.6-3.3z" fill="url(#c)"/></g></svg>

<?xml version="1.0" encoding="utf-8"?>
<!-- Generator: Adobe Illustrator 20.1.0, SVG Export Plug-In . SVG Version: 6.00 Build 0)  -->
<svg version="1.1" id="Layer_1" xmlns="http://www.w3.org/2000/svg" xmlns:xlink="http://www.w3.org/1999/xlink" x="0px" y="0px"
	 viewBox="0 0 14 14" style="enable-background:new 0 0 14 14;" xml:space="preserve">
<style type="text/css">
	.st0{fill:#FFFFFF;}
	.st1{fill:url(#Path_3_);}
	.st2{fill:url(#Path_4_);}
</style>
<title>HDL/Icon/Standard/Service/spotinst</title>
<desc>Created with Sketch.</desc>
<g id="Colors">
	<g id="Service-icons" transform="translate(-622.000000, -454.000000)">
		<g id="Spotnist" transform="translate(600.000000, 436.000000)">
			<g id="HDL_x2F_Icon_x2F_Standard_x2F_Service_x2F_spotinst" transform="translate(22.000000, 18.000000)">
				<g id="Spotinst-icon">
					<path id="Path" class="st0" d="M6.6,0.1L1.9,2.3C1.6,2.5,1.4,2.8,1.3,3.1l-1.1,5c-0.1,0.3,0,0.7,0.2,1l3.2,4
						c0.2,0.3,0.5,0.4,0.9,0.4h5.1c0.4,0,0.7-0.2,0.9-0.4l3.2-4c0.2-0.3,0.3-0.6,0.2-1l-1.1-5c-0.1-0.3-0.3-0.6-0.6-0.8L7.6,0.1
						C7.2,0,6.9,0,6.6,0.1z"/>
					
						<linearGradient id="Path_3_" gradientUnits="userSpaceOnUse" x1="-273.3702" y1="358.1274" x2="-273.7775" y2="359.1392" gradientTransform="matrix(12.439 0 0 -8.6741 3409.6636 3117.0237)">
						<stop  offset="0" style="stop-color:#1A8AFF"/>
						<stop  offset="0.24" style="stop-color:#1D8FFF"/>
						<stop  offset="0.52" style="stop-color:#249EFF"/>
						<stop  offset="0.83" style="stop-color:#30B6FF"/>
						<stop  offset="1" style="stop-color:#39C7FF"/>
					</linearGradient>
					<path id="Path_1_" class="st1" d="M2.2,8.4c0,0,0.1-0.1,0.1-0.2c0-1.1,0.4-2.1,1.2-2.8C4.2,4.8,5.1,4.5,6,4.6
						C7,4.7,7.8,5.1,8.4,5.8c0.1,0.1,0.1,0.1,0.2,0.1c1.2-0.4,2.4,0.1,3,1.2c0,0.1,0.1,0.1,0.1,0.1c0.6,0.1,1.2,0.5,1.5,1.1
						c0-0.1,0-0.2,0-0.2l-1-4.5c-0.1-0.3-0.3-0.6-0.6-0.7l-4.2-2c-0.3-0.1-0.6-0.1-0.9,0l-4.2,2C2.2,2.9,2,3.2,1.9,3.5L0.9,8
						c-0.1,0.3,0,0.6,0.2,0.9l0.4,0.5C1.6,9,1.8,8.7,2.2,8.4z"/>
					
						<linearGradient id="Path_4_" gradientUnits="userSpaceOnUse" x1="-269.312" y1="350.6083" x2="-269.7213" y2="351.6264" gradientTransform="matrix(10.64 0 0 -7.4085 2874.8667 2610.5256)">
						<stop  offset="0" style="stop-color:#1A8AFF"/>
						<stop  offset="0.24" style="stop-color:#1D8FFF"/>
						<stop  offset="0.52" style="stop-color:#249EFF"/>
						<stop  offset="0.83" style="stop-color:#30B6FF"/>
						<stop  offset="1" style="stop-color:#39C7FF"/>
					</linearGradient>
					<path id="Path_2_" class="st2" d="M12.7,9.1c-0.2-0.7-0.9-1.1-1.6-1h0l0,0c-0.2-0.8-1-1.4-1.8-1.3C9,6.7,8.7,6.8,8.5,6.9l0,0
						C8.4,7,8.3,7,8.2,7C8.2,7,8.1,6.9,8.1,6.8c-0.6-1-1.7-1.5-2.8-1.3C3.9,5.8,3,7,3.1,8.4c0,0.1,0,0.1,0,0.2c0,0.1,0,0.3-0.2,0.3
						c-0.5,0.2-0.8,0.7-0.8,1.3c0,0,0,0.1,0,0.1l1.8,2.2c0.2,0.2,0.5,0.4,0.8,0.4h4.6c0.3,0,0.6-0.1,0.8-0.4l2.6-3.3
						C12.7,9.2,12.7,9.1,12.7,9.1z"/>
				</g>
			</g>
		</g>
	</g>
</g>
</svg>
